SVG_Azure_All/High Availability.svg

<?xml version="1.0" encoding="UTF-8" standalone="no"?>
<!-- Generated by Microsoft Visio, SVG Export High Availability.svg Page-1 -->

<svg
   xmlns:dc="http://purl.org/dc/elements/1.1/"
   xmlns:cc="http://creativecommons.org/ns#"
   xmlns:rdf="http://www.w3.org/1999/02/22-rdf-syntax-ns#"
   xmlns:svg="http://www.w3.org/2000/svg"
   xmlns="http://www.w3.org/2000/svg"
   xmlns:sodipodi="http://sodipodi.sourceforge.net/DTD/sodipodi-0.dtd"
   xmlns:inkscape="http://www.inkscape.org/namespaces/inkscape"
   width="0.68715757in"
   height="0.78739399in"
   viewBox="0 0 49.475331 56.692516"
   xml:space="preserve"
   class="st6"
   version="1.1"
   id="svg48"
   sodipodi:docname="High Availability.svg"
   style="font-size:12px;overflow:visible;color-interpolation-filters:sRGB;fill:none;fill-rule:evenodd;stroke-linecap:square;stroke-miterlimit:3"
   inkscape:version="0.92.5 (2060ec1f9f, 2020-04-08)"><metadata
   id="metadata52"><rdf:RDF><cc:Work
       rdf:about=""><dc:format>image/svg+xml</dc:format><dc:type
         rdf:resource="http://purl.org/dc/dcmitype/StillImage" /></cc:Work></rdf:RDF></metadata><sodipodi:namedview
   pagecolor="#ffffff"
   bordercolor="#666666"
   borderopacity="1"
   objecttolerance="10"
   gridtolerance="10"
   guidetolerance="10"
   inkscape:pageopacity="0"
   inkscape:pageshadow="2"
   inkscape:window-width="640"
   inkscape:window-height="480"
   id="namedview50"
   showgrid="false"
   inkscape:zoom="1.2913992"
   inkscape:cx="32.96885"
   inkscape:cy="37.794185"
   inkscape:window-x="0"
   inkscape:window-y="0"
   inkscape:window-maximized="0"
   inkscape:current-layer="svg48" />
	<style
   type="text/css"
   id="style2">
	<![CDATA[
		.st1 {fill:#198ab3;stroke:none;stroke-linecap:butt;stroke-width:40.1838}
		.st2 {fill:#32bedd;stroke:none;stroke-linecap:butt;stroke-width:40.1838}
		.st3 {fill:url(#grad6-11);stroke:none;stroke-linecap:butt;stroke-width:40.1838}
		.st4 {fill:none;stroke:none;stroke-linecap:butt;stroke-width:40.1838}
		.st5 {fill:#37c2b1;stroke:none;stroke-linecap:butt;stroke-width:40.1838}
		.st6 {fill:none;fill-rule:evenodd;font-size:12px;overflow:visible;stroke-linecap:square;stroke-miterlimit:3}
	]]>
	</style>

	<defs
   id="Patterns_And_Gradients">
		<radialGradient
   id="grad6-11"
   cx="41.074145"
   cy="98.132168"
   r="57.503802"
   gradientTransform="scale(1.015656,0.98458535)"
   fx="41.074145"
   fy="98.132168"
   gradientUnits="userSpaceOnUse">
			<stop
   offset="0"
   stop-color="#5ea0ef"
   stop-opacity="1"
   id="stop4" />
			<stop
   offset="1"
   stop-color="#0078d4"
   stop-opacity="1"
   id="stop6" />
		</radialGradient>
	</defs>
	<g
   id="g46"
   transform="translate(-40.183984,-40.183695)">
		<title
   id="title10">Page-1</title>
		<g
   id="group4284-1"
   transform="translate(40.1838,-40.1838)">
			<title
   id="title12">High Availability</title>
			<g
   id="group4285-2">
				<title
   id="title14">Icon-nameAsset 6</title>
				<g
   id="group4286-3">
					<title
   id="title16">Sheet.4286</title>
					<g
   id="shape4287-4"
   transform="translate(18.0482,-3.1811)">
						<title
   id="title18">Sheet.4287</title>
						<path
   d="m 7.74,131.08 c 0,-0.52 -2.11,-0.52 -2.11,0 A 5.69875,5.52441 0 0 1 0,137.06 h 13.36 a 5.69225,5.51811 0 0 1 -5.62,-5.98 z"
   class="st1"
   id="path20"
   inkscape:connector-curvature="0"
   style="fill:#198ab3;stroke:none;stroke-width:40.18379974;stroke-linecap:butt" />
					</g>
					<g
   id="shape4288-6"
   transform="translate(1.48332)">
						<title
   id="title23">Sheet.4288</title>
						<path
   d="m 38.17,82.37 a 1.9494,1.88976 0 0 1 2.78,0 l 0.09,0.09 A 28.6205,27.7449 0 0 1 0.66,121.58 1.9494,1.88976 0 0 1 0.5,118.89 l 0.08,-0.08 a 1.9494,1.88976 0 0 1 2.69,-0.08 24.6924,23.937 -180 0 0 34.82,-33.75 1.9494,1.88976 0 0 1 0.08,-2.61 z m -4.78,54.69 h -20.3 a 1.6245,1.5748 0 0 1 -1.62,-1.57 1.6245,1.5748 0 0 1 1.62,-1.58 h 20.3 a 1.6245,1.5748 0 0 1 1.63,1.58 1.6245,1.5748 0 0 1 -1.63,1.57 z"
   class="st2"
   id="path25"
   inkscape:connector-curvature="0"
   style="fill:#32bedd;stroke:none;stroke-width:40.18379974;stroke-linecap:butt" />
					</g>
					<g
   id="shape4289-8"
   transform="translate(0,-16.252)">
						<title
   id="title28">Sheet.4289</title>
						<ellipse
   cx="20.858601"
   cy="116.84"
   rx="20.858601"
   ry="20.220501"
   class="st3"
   id="ellipse30"
   style="fill:url(#grad6-11);stroke:none;stroke-width:40.18379974;stroke-linecap:butt" />
					</g>
					<g
   id="shape4290-12"
   transform="translate(0,-16.252)">
						<title
   id="title33">Sheet.4290</title>
						<ellipse
   cx="20.858601"
   cy="116.84"
   rx="20.858601"
   ry="20.220501"
   class="st4"
   id="ellipse35"
   style="fill:none;stroke:none;stroke-width:40.18379974;stroke-linecap:butt" />
					</g>
					<g
   id="shape4291-14"
   transform="translate(0.393129,-16.2526)">
						<title
   id="title38">Sheet.4291</title>
						<path
   d="m 16.42,116.88 a 2.88836,2.8 -180 1 0 -4.08,0 2.88836,2.8 -180 0 0 4.08,0 z m 13.62,-4.25 a 7.90157,7.65984 -180 0 0 0,10.83 l 1.6,1.55 a 1.52703,1.48031 0 0 1 -0.03,2.08 1.53028,1.48346 0 0 1 -2.17,0 l 0.02,0.02 a 2.08261,2.0189 -180 0 0 -2.92,2.86 L 31,134.3 a 20.8391,20.2016 -180 0 0 9.79,-22.05 7.89832,7.65669 -180 0 0 -10.75,0.38 z m -18.87,-6.67 a 4.83831,4.69029 -180 0 0 6.84,-6.63 l -2.26,-2.19 a 20.8196,20.1827 -180 0 0 -9.04,4.52 z m -9,1.16 A 20.6669,20.0346 -180 0 0 0,112.94 l 2.42,2.35 a 2.8902876,2.8018686 -180 0 0 4.09,-3.96 z m 10.91,28.63 a 20.8326,20.1953 -180 0 0 15.04,-0.1 l -1.22,-1.18 a 9.00623,8.73071 -180 0 0 -12.74,0 9.23691,8.95433 -180 0 0 -1.08,1.28 z"
   class="st5"
   id="path40"
   inkscape:connector-curvature="0"
   style="fill:#37c2b1;stroke:none;stroke-width:40.18379974;stroke-linecap:butt" />
					</g>
				</g>
			</g>
		</g>
	</g>
</svg>

<?xml version="1.0" encoding="UTF-8" standalone="no"?>
<!DOCTYPE svg PUBLIC "-//W3C//DTD SVG 1.1//EN" "http://www.w3.org/Graphics/SVG/1.1/DTD/svg11.dtd">
<!-- Generated by Microsoft Visio, SVG Export High Availability.svg Page-1 -->
<svg xmlns="http://www.w3.org/2000/svg" xmlns:xlink="http://www.w3.org/1999/xlink" xmlns:ev="http://www.w3.org/2001/xml-events"
		width="1.80307in" height="1.90362in" viewBox="0 0 129.821 137.061" xml:space="preserve" color-interpolation-filters="sRGB"
		class="st6">
	<style type="text/css">
	<![CDATA[
		.st1 {fill:#198ab3;stroke:none;stroke-linecap:butt;stroke-width:40.1838}
		.st2 {fill:#32bedd;stroke:none;stroke-linecap:butt;stroke-width:40.1838}
		.st3 {fill:url(#grad6-11);stroke:none;stroke-linecap:butt;stroke-width:40.1838}
		.st4 {fill:none;stroke:none;stroke-linecap:butt;stroke-width:40.1838}
		.st5 {fill:#37c2b1;stroke:none;stroke-linecap:butt;stroke-width:40.1838}
		.st6 {fill:none;fill-rule:evenodd;font-size:12px;overflow:visible;stroke-linecap:square;stroke-miterlimit:3}
	]]>
	</style>

	<defs id="Patterns_And_Gradients">
		<radialGradient id="grad6-11" cx="1" cy="0" r="1.4">
			<stop offset="0" stop-color="#5ea0ef" stop-opacity="1"/>
			<stop offset="1" stop-color="#0078d4" stop-opacity="1"/>
		</radialGradient>
	</defs>
	<g>
		<title>Page-1</title>
		<g id="group4191-1" transform="translate(40.1838,-40.1838)">
			<title>High Availability</title>
			<g id="group4192-2">
				<title>Icon-nameAsset 6</title>
				<g id="group4193-3">
					<title>Sheet.4193</title>
					<g id="shape4194-4" transform="translate(18.0482,-3.1811)">
						<title>Sheet.4194</title>
						<path d="M7.74 131.08 C7.74 130.56 5.63 130.56 5.63 131.08 A5.69875 5.52441 0 0 1 -0 137.06 L13.36 137.06
									 A5.69225 5.51811 0 0 1 7.74 131.08 Z" class="st1"/>
					</g>
					<g id="shape4195-6" transform="translate(1.48332,0)">
						<title>Sheet.4195</title>
						<path d="M38.17 82.37 A1.9494 1.88976 0 0 1 40.95 82.37 L41.04 82.46 A28.6205 27.7449 0 0 1 0.66 121.58 A1.9494
									 1.88976 0 0 1 0.5 118.89 L0.58 118.81 A1.9494 1.88976 0 0 1 3.27 118.73 A24.6924 23.937 -180
									 0 0 38.09 84.98 A1.9494 1.88976 0 0 1 38.17 82.37 ZM33.39 137.06 L13.09 137.06 A1.6245 1.5748
									 0 0 1 11.47 135.49 A1.6245 1.5748 0 0 1 13.09 133.91 L33.39 133.91 A1.6245 1.5748 0 0 1 35.02
									 135.49 A1.6245 1.5748 0 0 1 33.39 137.06 Z" class="st2"/>
					</g>
					<g id="shape4196-8" transform="translate(-2.11831E-13,-16.252)">
						<title>Sheet.4196</title>
						<ellipse cx="20.8586" cy="116.84" rx="20.8586" ry="20.2205" class="st3"/>
					</g>
					<g id="shape4197-12" transform="translate(-2.11831E-13,-16.252)">
						<title>Sheet.4197</title>
						<ellipse cx="20.8586" cy="116.84" rx="20.8586" ry="20.2205" class="st4"/>
					</g>
					<g id="shape4198-14" transform="translate(0.393129,-16.2526)">
						<title>Sheet.4198</title>
						<path d="M16.42 116.88 A2.88836 2.8 -180 1 0 12.34 116.88 A2.88836 2.8 -180 0 0 16.42 116.88 ZM30.04 112.63
									 A7.90157 7.65984 -180 0 0 30.04 123.46 L31.64 125.01 A1.52703 1.48031 0 0 1 31.61 127.09 A1.53028
									 1.48346 0 0 1 29.44 127.09 L29.46 127.11 A2.08261 2.0189 -180 0 0 26.54 129.97 L31 134.3 A20.8391
									 20.2016 -180 0 0 40.79 112.25 A7.89832 7.65669 -180 0 0 30.04 112.63 ZM11.17 105.96 A4.83831
									 4.69029 -180 0 0 18.01 99.33 L15.75 97.14 A20.8196 20.1827 -180 0 0 6.71 101.66 L11.17 105.96
									 ZM2.17 107.12 A20.6669 20.0346 -180 0 0 -0 112.94 L2.42 115.29 A2.88836 2.8 -180 0 0 6.51 111.33
									 L2.17 107.12 ZM13.08 135.75 A20.8326 20.1953 -180 0 0 28.12 135.65 L26.9 134.47 A9.00623 8.73071
									 -180 0 0 14.16 134.47 A9.23691 8.95433 -180 0 0 13.08 135.75 Z" class="st5"/>
					</g>
				</g>
			</g>
		</g>
	</g>
</svg>
